other/webvideocaster.svg

<?xml version="1.0" encoding="UTF-8" standalone="no"?>
<svg
   xmlns:dc="http://purl.org/dc/elements/1.1/"
   xmlns:cc="http://creativecommons.org/ns#"
   xmlns:rdf="http://www.w3.org/1999/02/22-rdf-syntax-ns#"
   xmlns:svg="http://www.w3.org/2000/svg"
   xmlns="http://www.w3.org/2000/svg"
   id="svg1757"
   version="1.1"
   viewBox="0 0 48 48"
   height="48"
   width="48">
  <metadata
     id="metadata1763">
    <rdf:RDF>
      <cc:Work
         rdf:about="">
        <dc:format>image/svg+xml</dc:format>
        <dc:type
           rdf:resource="http://purl.org/dc/dcmitype/StillImage" />
        <dc:title></dc:title>
      </cc:Work>
    </rdf:RDF>
  </metadata>
  <defs
     id="defs1761" />
  <path
     id="path5800"
     d="M 5 19.25 L 5 24 A 19 19 0 0 1 24 43 L 28.75 43 A 23.75 23.75 0 0 0 5 19.25 z M 5 27.166016 L 5 31.916016 A 11.083333 11.083333 0 0 1 16.083984 43 L 20.833984 43 A 15.833333 15.833333 0 0 0 5 27.166016 z M 5 35.083984 L 5 39.833984 A 3.1666667 3.1666667 0 0 1 7.2382812 40.761719 A 3.1666667 3.1666667 0 0 1 8.1660156 43 L 12.916016 43 A 7.9166667 7.9166667 0 0 0 5 35.083984 z "
     style="opacity:1;fill:#ffffff;fill-opacity:1;stroke:none;stroke-width:0.81787086;stroke-linecap:round;stroke-linejoin:round;stroke-miterlimit:4;stroke-dasharray:none;stroke-opacity:1;paint-order:stroke markers fill" />
  <path
     id="path5819"
     d="m 35.083333,5 a 7.9166667,7.9166667 0 0 0 -7.916666,7.916667 7.9166667,7.9166667 0 0 0 7.916666,7.916666 A 7.9166667,7.9166667 0 0 0 43,12.916667 7.9166667,7.9166667 0 0 0 35.083333,5 Z m -1.754964,4.55363 c 0.218529,0.04089 0.566802,0.258096 1.124104,0.604573 l 1.501384,0.865886 1.502929,0.867431 c 1.449519,0.85816 1.449519,0.858746 0,1.734863 l -1.502929,0.867432 -1.501384,0.867432 c -1.486142,0.867139 -1.478813,0.866846 -1.501383,-0.867432 v -1.734863 -1.734863 c 0.0099,-1.119423 0.01306,-1.538612 0.377279,-1.470459 z"
     style="opacity:1;fill:#ffffff;fill-opacity:1;stroke:none;stroke-width:0.59842521;stroke-linecap:round;stroke-linejoin:round;stroke-miterlimit:4;stroke-dasharray:none;stroke-opacity:1;paint-order:stroke markers fill" />
  <path
     id="path5834"
     d="M 10.283203 11.240234 A 1.9791666 1.9791666 0 0 0 8.3027344 13.220703 A 1.9791666 1.9791666 0 0 0 10.283203 15.199219 A 1.9791666 1.9791666 0 0 0 12.261719 13.220703 A 1.9791666 1.9791666 0 0 0 10.283203 11.240234 z M 16.615234 11.240234 A 1.9791666 1.9791666 0 0 0 14.636719 13.220703 A 1.9791666 1.9791666 0 0 0 16.615234 15.199219 A 1.9791666 1.9791666 0 0 0 18.595703 13.220703 A 1.9791666 1.9791666 0 0 0 16.615234 11.240234 z M 22.949219 11.240234 A 1.9791666 1.9791666 0 0 0 20.970703 13.220703 A 1.9791666 1.9791666 0 0 0 22.949219 15.199219 A 1.9791666 1.9791666 0 0 0 24.927734 13.220703 A 1.9791666 1.9791666 0 0 0 22.949219 11.240234 z "
     style="opacity:1;fill:#ffffff;fill-opacity:1;stroke:none;stroke-width:0.7480315;stroke-linecap:round;stroke-linejoin:round;stroke-miterlimit:4;stroke-dasharray:none;stroke-opacity:1;paint-order:stroke markers fill" />
</svg>

<?xml version="1.0" encoding="UTF-8"?>
<svg version="1.1" viewBox="0 0 48 48" xmlns="http://www.w3.org/2000/svg">
    <path d="m5 19.25v4.75a19 19 0 0 1 19 19h4.75a23.75 23.75 0 0 0-23.75-23.75zm0 7.916v4.75a11.083 11.083 0 0 1 11.084 11.084h4.75a15.833 15.833 0 0 0-15.834-15.834zm0 7.918v4.75a3.1667 3.1667 0 0 1 2.2383 0.92774 3.1667 3.1667 0 0 1 0.92773 2.2383h4.75a7.9167 7.9167 0 0 0-7.916-7.916z" fill="#fff" style="paint-order:stroke markers fill"/>
    <path d="m35.083 5a7.9167 7.9167 0 0 0-7.9167 7.9167 7.9167 7.9167 0 0 0 7.9167 7.9167 7.9167 7.9167 0 0 0 7.9167-7.9167 7.9167 7.9167 0 0 0-7.9167-7.9167zm-1.755 4.5536c0.21853 0.04089 0.5668 0.2581 1.1241 0.60457l1.5014 0.86589 1.5029 0.86743c1.4495 0.85816 1.4495 0.85875 0 1.7349l-1.5029 0.86743-1.5014 0.86743c-1.4861 0.86714-1.4788 0.86685-1.5014-0.86743v-3.4697c0.0099-1.1194 0.01306-1.5386 0.37728-1.4705z" fill="#fff" style="paint-order:stroke markers fill"/>
    <path d="m10.283 11.24a1.9792 1.9792 0 0 0-1.9805 1.9805 1.9792 1.9792 0 0 0 1.9805 1.9785 1.9792 1.9792 0 0 0 1.9785-1.9785 1.9792 1.9792 0 0 0-1.9785-1.9805zm6.332 0a1.9792 1.9792 0 0 0-1.9785 1.9805 1.9792 1.9792 0 0 0 1.9785 1.9785 1.9792 1.9792 0 0 0 1.9805-1.9785 1.9792 1.9792 0 0 0-1.9805-1.9805zm6.334 0a1.9792 1.9792 0 0 0-1.9785 1.9805 1.9792 1.9792 0 0 0 1.9785 1.9785 1.9792 1.9792 0 0 0 1.9785-1.9785 1.9792 1.9792 0 0 0-1.9785-1.9805z" fill="#fff" style="paint-order:stroke markers fill"/>
</svg>
